X:1
T:Ad Coenam Agni Providi
T:Johann Stadlmayr (1575 - 1648) Amen by BMarble
T:Ad Coenam Agni Providi
T:Copyright © 2015 by The Choral Public Domain Library. Edition may be freely distributed, duplicated, performed or recorded.
T:Copyright © 2015 by The Choral Public Domain Library. Edition may be freely distributed, duplicated, performed or recorded.
T:Copyright © 2015 by The Choral Public Domain Library. Edition may be freely distributed, duplicated, performed or recorded.
T:Copyright © 2015 by The Choral Public Domain Library. Edition may be freely distributed, duplicated, performed or recorded.
T:Copyright © 2015 by The Choral Public Domain Library. Edition may be freely distributed, duplicated, performed or recorded.
T:Copyright © 2015 by The Choral Public Domain Library. Edition may be freely distributed, duplicated, performed or recorded.
T:Copyright © 2015 by The Choral Public Domain Library. Edition may be freely distributed, duplicated, performed or recorded.
T:Copyright © 2015 by The Choral Public Domain Library. Edition may be freely distributed, duplicated, performed or recorded.
C:Johann Stadlmayr
C:(1575 - 1648)
C:Amen by BMarble
Z:Copyright © 2015 by The Choral Public Domain Library. Edition may be freely distributed, duplicated, performed or recorded.
%%score [ 1 2 3 4 ]
L:1/8
Q:1/2=68
M:4/4
K:C
V:1 treble nm="Soprano" snm="S."
V:2 treble nm="Alto" snm="A."
V:3 treble-8 transpose=-12 nm="Tenor" snm="T."
V:4 bass nm="Baritone" snm="Bar."
V:1
 z28 | z28 | z26 | z28 ||[M:3/2][Q:1/2=112] G4 A4 G4 | A8 B4 | c8 A4 | B8 z4 | A4 B4 c4 | A8 G4 | %10
w: ||||2.~Cu- jus Cor-|pus san-|ctis- si-|mum|in a- ra|cru- cis|
 A8 c4 | B2 c2 d2 c2 B4 | A4 B4 c4 | d8 B4 | c8 B4 | A8 z4 | A4 c4 c4 ||[M:3/1] B4 A4 B8 A8 | %18
w: tor- ri-|dum, _ _ _ _|sed et cru-|o- rem|ro- se-|um|gu- stan- do,|De- o vi- vi-|
 G16 ||[Q:1/2=68][Q:1/2=68] z28 | z28 | z26 | z28 ||[M:3/2][Q:1/2=112] G4 A4 G4 | A8 B4 | c8 A4 | %26
w: mus.|||||4.~Jam Pa- scha|nos- trum|Chri- stus|
 B8 z4 | A4 B4 c4 | A8 G4 | A8 c4 | B2 c2 d2 c2 B4 | A4 B4 c4 | d8 B4 | c8 B4 | A8 z4 | A4 c4 c4 || %36
w: est.|A- gnus oc-|ci- sus|in- no|cens; _ _ _ _|sin- ce- ri-|ta- tis|a- zy-|ma|qui car- nem|
[M:3/1] B4 A4 B8 A8 | G16 ||[Q:1/2=68][Q:1/2=68] z28 | z28 | z26 | z28 || %42
w: su- am ob- tu-|lit.|||||
[M:3/2][Q:1/2=112] G4 A4 G4 | A8 B4 | c8 A4 | B8 z4 | A4 B4 c4 | A8 G4 | A8 c4 | B2 c2 d2 c2 B4 | %50
w: 6.~Con- sur- git|Chri- stus|tu- mu-|lo,|vi- ctor re-|dit de|bar- ba-|thro, _ _ _ _|
 A4 B4 c4 | d8 B4 | c8 B4 | A8 z4 | A4 c4 c4 ||[M:3/1] B4 A4 B8 A8 | G16 || %57
w: ty- ran- num|tru- dens|vin- cu-|lo|et pa- ra-|di- sum re- se-|rans.|
[Q:1/2=68][Q:1/2=68] z28 | z28 | z26 | z28 ||[M:3/2][Q:1/2=112] G4 A4 G4 | A8 B4 | c8 A4 | B8 z4 | %65
w: ||||8.~Je- su, ti-|bi sit|glo- ri-|a,|
 A4 B4 c4 | A8 G4 | A8 c4 | B2 c2 d2 c2 B4 | A4 B4 c4 | d4 d4 B4 | c8 B4 | A8 z4 | A4 c4 c4 || %74
w: qui mor- te|vi- cta|prae- ni-|tes, _ _ _ _|cum Pa- tre|et al- mo|Spi- ri-|tu,|in sem- pi-|
[M:3/1] B4 A4 B8 A8 | G16 ||[M:3/1][Q:1/2=68] G4 A4 G12 ^F4 | G16 |] %78
w: ter- na sae- cu-|la.|A- * * *|men.|
V:2
 z28 | z28 | z26 | z28 ||[M:3/2] D4 D4 D4 | ^F8 G4 | G8 ^F4 | G8 z4 | ^F4 G4 G4 | =F8 E4 | F8 E4 | %11
w: ||||2.~Cu- jus Cor-|pus san-|ctis- si-|mum|in a- ra|cru- cis|tor- ri-|
 G12 | ^F4 G4 A4 | D4 G4 G2 F2 | E2 D2 E4 E4 | ^C8 z4 | F4 F4 E4 ||[M:3/1] G4 ^F4 G4 D12 | D16 || %19
w: dum,|sed et cru-|o- rem ro- *|* * * se-|um|gu- stan- do,|De- o vi- vi-|mus.|
 z28 | z28 | z26 | z28 ||[M:3/2] D4 D4 D4 | ^F8 G4 | G8 ^F4 | G8 z4 | ^F4 G4 G4 | =F8 E4 | F8 E4 | %30
w: ||||4.~Jam Pa- scha|nos- trum|Chri- stus|est.|A- gnus oc-|ci- sus|in- no|
 G12 | ^F4 G4 A4 | D4 G4 G2 F2 | E2 D2 E4 E4 | ^C8 z4 | F4 F4 E4 ||[M:3/1] G4 ^F4 G4 D12 | D16 || %38
w: cens;|sin- ce- ri-|ta- tis a- *|* * * zy-|ma|qui car- nem|su- am ob- tu-|lit.|
 z28 | z28 | z26 | z28 ||[M:3/2] D4 D4 D4 | ^F8 G4 | G8 ^F4 | G8 z4 | ^F4 G4 G4 | =F8 E4 | F8 E4 | %49
w: ||||6.~Con- sur- git|Chri- stus|tu- mu-|lo,|vi- ctor re-|dit de|bar- ba-|
 G12 | ^F4 G4 A4 | D4 G4 G2 F2 | E2 D2 E4 E4 | ^C8 z4 | F4 F4 E4 ||[M:3/1] G4 ^F4 G4 D12 | D16 || %57
w: thro,|ty- ran- num|tru- dens vin- *|* * * cu-|lo|et pa- ra-|di- sum re- se-|rans.|
 z28 | z28 | z26 | z28 ||[M:3/2] D4 D4 D4 | ^F8 G4 | G8 ^F4 | G8 z4 | ^F4 G4 G4 | =F8 E4 | F8 E4 | %68
w: ||||8.~Je- su, ti-|bi sit|glo- ri-|a,|qui mor- te|vi- cta|prae- ni-|
 G12 | ^F4 G4 A4 | D4 G4 G2 F2 | E2 D2 E4 E4 | ^C8 z4 | F4 F4 E4 ||[M:3/1] G4 ^F4 G4 D12 | D16 || %76
w: tes,|cum Pa- tre|et al- mo _|_ _ Spi- ri-|tu,|in sem- pi-|ter- na sae- cu-|la.|
[M:3/1] (G4 F2 E2) D4 (C4 D8) | D16 |] %78
w: A- * * men, a- *|men.|
V:3
"^Vespers Hymn, Easter 2 - Ascension" A2 c2 (A2 G2) (c2 B2) (c2 d2) c2 B2 A8 | %1
w: 1.~Ad coe- nam _ A- * gni _ pro- vi- di,|
 A2 (A2 G2) (E2 F2) G2 (E2 G2) F2 E2 D8 | E2 E2 (D2 C2) G2 (G2 A2) c2 c2 (B4 A4) | %3
w: sto- lis _ sa- * lu- tis _ can di- di:|post tran- si- * tum ma- * ris Ru- bri _|
 (c2 d2) c2 (A2 G2) B2 (A2 B2) A2 A2 G8 ||[M:3/2] B4 A4 B4 | d8 d4 | e8 d4 | d8 z4 | d4 d4 e4 | %9
w: Chri- * sto ca- * na- mus _ prin- ci- pi.|2.~Cu- jus Cor-|pus san-|ctis- si-|mum|in a- ra|
 c8 c4 | c8 c4 | d2 c2 B2 c2 d4 | d4 d4 c4 | B8 B4 | (G4 A4) ^G4 | A8 z4 | c4 A4 c4 || %17
w: cru- cis|tor- ri-|dum, _ _ _ _|sed et cru-|o- rem|ro- * se-|um|gu- stan- do,|
[M:3/1] d4 d4 d4 (G8 ^F4) | G16 || A2 c2 (A2 G2) (c2 B2) (c2 d2) c2 B2 A8 | %20
w: De- o vi- vi- *|mus.|3.~Pro- te- cti _ pa- * schae _ ve- spe- ro|
 A2 (A2 G2) (E2 F2) G2 (E2 G2) F2 E2 D8 | E2 E2 (D2 C2) G2 (G2 A2) c2 c2 (B4 A4) | %22
w: a de- * va- * stan- te _ an- ge- lo.|de Pha- ra- * o- nis _ a- spe- ro _|
 (c2 d2) c2 (A2 G2) B2 A2 B2 A2 A2 G8 ||[M:3/2] B4 A4 B4 | d8 d4 | e8 d4 | d8 z4 | d4 d4 e4 | %28
w: su- mus _ e- * re- pti im- pe- ri- o|4.~Jam Pa- scha|nos- trum|Chri- stus|est.|A- gnus oc-|
 c8 c4 | c8 c4 | d2 c2 B2 c2 d4 | d4 d4 c4 | B8 B4 | (G4 A4) ^G4 | A8 z4 | c4 A4 c4 || %36
w: ci- sus|in- no|cens; _ _ _ _|sin- ce- ri-|ta- tis|a- * zy-|ma|qui car- nem|
[M:3/1] d4 d4 d4 (G8 ^F4) | G16 || A2 c2 (A2 G2) (c2 B2) (c2 d2) c2 B2 A8 | %39
w: su- am ob- tu- *|lit.|5.~O ve- ra, _ di- * gna _ ho- sti- a,|
 A2 (A2 G2) (E2 F2) G2 (E2 G2) F2 E2 D8 | E2 E2 (D2 C2) G2 (G2 A2) c2 c2 (B4 A4) | %41
w: per quem _ fran- * gun- tur _ tar- ta- ta,|ca- pti- va _ plebs re- * di- mi- tur, _|
 (c2 d2) c2 (A2 G2) B2 (A2 B2) A2 A2 G8 ||[M:3/2] B4 A4 B4 | d8 d4 | e8 d4 | d8 z4 | d4 d4 e4 | %47
w: red- * den- tur _ vi- tae _ prae- mi- a!|6.~Con- sur- git|Chri- stus|tu- mu-|lo,|vi- ctor re-|
 c8 c4 | c8 c4 | d2 c2 B2 c2 d4 | d4 d4 c4 | B8 B4 | (G4 A4) ^G4 | A8 z4 | c4 A4 c4 || %55
w: dit de|bar- ba-|thro, _ _ _ _|ty- ran- num|tru- dens|vin- * cu-|lo|et pa- ra-|
[M:3/1] d4 d4 d4 (G8 ^F4) | G16 || A2 c2 (A2 G2) (c2 B2) (c2 d2) c2 B2 A8 | %58
w: di- sum re- se- *|rans.|7.~E- sto pe- * ren- * ne _ men- ti- bus|
 A2 (A2 G2) (E2 F2) G2 (E2 G2) F2 E2 D8 | E2 E2 (D2 C2) G2 (G2 A2) c2 c2 (B4 A4) | %60
w: pas- cha- * le, _ Je- su, _ gau- di- um|et nos re- * na- tos _ gra- ti- ae _|
 (c2 d2) c2 (A2 G2) B2 (A2 B2) A2 A2 G8 ||[M:3/2] B4 A4 B4 | d8 d4 | e8 d4 | d8 z4 | d4 d4 e4 | %66
w: tu- * is tri- * um- phis _ ag- gre- ga.|8.~Je- su, ti-|bi sit|glo- ri-|a,|qui mor- te|
 c8 c4 | c8 c4 | d2 c2 B2 c2 d4 | d4 d4 c4 | B4 B4 B4 | (G4 A4) ^G4 | A8 z4 | c4 A4 c4 || %74
w: vi- cta|prae- ni-|tes, _ _ _ _|cum Pa- tre|et al- mo|Spi- * ri-|tu,|in sem- pi-|
[M:3/1] d4 d4 d4 (G8 ^F4) | G16 ||[M:3/1] (d6 c2) (B2 A2 G4) A8 | G16 |] %78
w: ter- na sae- cu- *|la.|A- * men, _ _ a-|men.|
V:4
 z28 | z28 | z26 | z28 ||[M:3/2] G,4 ^F,4 G,4 | D,8 G,4 | C,2 D,2 E,2 C,2 D,2 D,2 | G,,8 z4 | %8
w: ||||2.~Cu- jus Cor-|pus san-|ctis- * * * * si-|mum|
 D,4 G,4 E,4 | F,8 C,4 | F,2 E,2 F,2 G,2 A,2 A,2 | G,12 | D,4 B,,4 A,,4 | G,,8 G,,4 | %14
w: in a- ra|cru- cis|tor- * * * * ri-|dum,|sed et cru-|o- rem|
 C,2 B,,2 C,2 D,2 E,2 E,2 | A,,8 z4 | F,4 F,4 A,4 ||[M:3/1] G,4 D,4 B,,2 A,,2 B,,2 C,2 D,4 D,4 | %18
w: ro- * * * * se-|um|gu- stan- do,|De- o vi- * * * * vi-|
 G,,16 || z28 | z28 | z26 | z28 ||[M:3/2] G,4 ^F,4 G,4 | D,8 G,4 | C,2 D,2 E,2 C,2 D,2 D,2 | %26
w: mus.|||||4.~Jam Pa- scha|nos- trum|Chri- * * * * stus|
 G,,8 z4 | D,4 G,4 E,4 | F,8 C,4 | F,2 E,2 F,2 G,2 A,2 A,2 | G,12 | D,4 B,,4 A,,4 | G,,8 G,,4 | %33
w: est.|A- gnus oc-|ci- sus|in- * * * * no|cens;|sin- ce- ri-|ta- tis|
 C,2 B,,2 C,2 D,2 E,2 E,2 | A,,8 z4 | F,4 F,4 A,4 ||[M:3/1] G,4 D,4 B,,2 A,,2 B,,2 C,2 D,4 D,4 | %37
w: a- * * * * zy-|ma|qui car- nem|su- am ob- * * * * tu-|
 G,,16 || z28 | z28 | z26 | z28 ||[M:3/2] G,4 ^F,4 G,4 | D,8 G,4 | C,2 D,2 E,2 C,2 D,2 D,2 | %45
w: lit.|||||6.~Con- sur- git|Chri- stus|tu- * * * * mu-|
 G,,8 z4 | D,4 G,4 E,4 | F,8 C,4 | F,2 E,2 F,2 G,2 A,2 A,2 | G,12 | D,4 B,,4 A,,4 | G,,8 G,,4 | %52
w: lo,|vi- ctor re-|dit de|bar- * * * * ba-|thro,|ty- ran- num|tru- dens|
 C,2 B,,2 C,2 D,2 E,2 E,2 | A,,8 z4 | F,4 F,4 A,4 ||[M:3/1] G,4 D,4 B,,2 A,,2 B,,2 C,2 D,4 D,4 | %56
w: vin- * * * * cu-|lo|et pa- ra-|di- sum re- * * * * se-|
 G,,16 || z28 | z28 | z26 | z28 ||[M:3/2] G,4 ^F,4 G,4 | D,8 G,4 | C,2 D,2 E,2 C,2 D,2 D,2 | %64
w: rans.|||||8.~Je- su, ti-|bi sit|glo- * * * * ri-|
 G,,8 z4 | D,4 G,4 E,4 | F,8 C,4 | F,2 E,2 F,2 G,2 A,2 A,2 | G,12 | D,4 B,,4 A,,4 | %70
w: a,|qui mor- te|vi- cta|prae- * * * * ni-|tes,|cum Pa- tre|
 G,,4 G,,4 G,,4 | C,2 B,,2 C,2 D,2 E,2 E,2 | A,,8 z4 | F,4 F,4 A,4 || %74
w: et al- mo|Spi- * * * * ri-|tu,|in sem- pi-|
[M:3/1] G,4 D,4 B,,2 A,,2 B,,2 C,2 D,4 D,4 | G,,16 ||[M:3/1] (B,,2 A,,2 B,,2 C,2) D,4 (E,4 D,8) | %77
w: ter- na sae- * * * * cu-|la.|A- * * * men, a- *|
 G,,16 |] %78
w: men.|

